docs/public/static/branding/product-toolpad-dark.svg

<svg width="37" height="36" viewBox="0 0 37 36" fill="none" xmlns="http://www.w3.org/2000/svg">
<circle cx="18.5" cy="18" r="16" fill="#132F4C"/>
<mask id="mask0_1019_64175" style="mask-type:alpha" maskUnits="userSpaceOnUse" x="16" y="12" width="14" height="16">
<path d="M24.1766 13.3652C23.2851 12.8557 22.1906 12.8557 21.299 13.3651L17.5549 15.5046C16.6514 16.0209 16.0938 16.9818 16.0938 18.0225V22.2499C16.0938 23.2906 16.6514 24.2515 17.5549 24.7678L21.299 26.9073C22.1905 27.4167 23.285 27.4167 24.1766 26.9073L27.9207 24.7678C28.8242 24.2515 29.3819 23.2906 29.3819 22.2499V18.0225C29.3819 16.9818 28.8242 16.021 27.9207 15.5046L24.1766 13.3652Z" fill="#D7DCE1"/>
</mask>
<g mask="url(#mask0_1019_64175)">
<path d="M22.7383 27.7297V20.1365L29.3823 16.3398V23.9331L22.7383 27.7297Z" fill="#007FFF"/>
<path d="M16.0938 23.9331V16.3398L22.7378 20.1365V27.7297L16.0938 23.9331Z" fill="#3399FF"/>
<path d="M16.0938 16.3396L22.7378 12.543L29.3819 16.3396L22.7378 20.1362L16.0938 16.3396Z" fill="#A5D8FF"/>
</g>
<mask id="mask1_1019_64175" style="mask-type:alpha" maskUnits="userSpaceOnUse" x="8" y="17" width="14" height="15">
<path d="M8.5 22.292C8.5 21.2514 9.05763 20.2905 9.9612 19.7741L13.7053 17.6347C14.5968 17.1252 15.6913 17.1252 16.5829 17.6347L20.3269 19.7741C21.2305 20.2905 21.7881 21.2514 21.7881 22.292V26.5194C21.7881 27.5601 21.2305 28.521 20.3269 29.0373L16.5829 31.1768C15.6913 31.6862 14.5968 31.6862 13.7053 31.1768L9.9612 29.0373C9.05763 28.521 8.5 27.5601 8.5 26.5194V22.292Z" fill="#D7DCE1"/>
</mask>
<g mask="url(#mask1_1019_64175)">
<path d="M15.1445 31.9992V24.406L21.7886 20.6094V28.2026L15.1445 31.9992Z" fill="#007FFF"/>
<path d="M8.5 28.2026V20.6094L15.1441 24.406V31.9992L8.5 28.2026Z" fill="#3399FF"/>
<path d="M8.5 20.6091L15.1441 16.8125L21.7881 20.6091L15.1441 24.4057L8.5 20.6091Z" fill="#A5D8FF"/>
</g>
<mask id="mask2_1019_64175" style="mask-type:alpha" maskUnits="userSpaceOnUse" x="8" y="4" width="22" height="20">
<path d="M24.1701 4.81875C23.2818 4.31113 22.1917 4.30917 21.3015 4.81359L9.97026 11.2346C9.0616 11.7496 8.5 12.7133 8.5 13.7577V17.9781C8.5 19.0188 9.05763 19.9797 9.9612 20.496L13.7112 22.6389C14.5996 23.1465 15.6896 23.1484 16.5798 22.644L27.9111 16.223C28.8197 15.7081 29.3813 14.7443 29.3813 13.6999V9.47955C29.3813 8.43887 28.8237 7.47797 27.9201 6.96164L24.1701 4.81875Z" fill="#D7DCE1"/>
</mask>
<g mask="url(#mask2_1019_64175)">
<path d="M15.1445 23.4579V15.8647L29.3818 7.79688V15.3901L15.1445 23.4579Z" fill="#007FFF"/>
<path d="M8.5 19.6596V12.0664L15.1441 15.863V23.4562L8.5 19.6596Z" fill="#3399FF"/>
<path d="M8.5 12.0678L22.7373 4L29.3814 7.79661L15.1441 15.8644L8.5 12.0678Z" fill="#A5D8FF"/>
</g>
</svg>

<svg width="37" height="36" fill="none" xmlns="http://www.w3.org/2000/svg"><circle cx="18.5" cy="18" r="16" fill="#132F4C"/><mask id="a" style="mask-type:alpha" maskUnits="userSpaceOnUse" x="16" y="12" width="14" height="16"><path d="M24.18 13.37a2.9 2.9 0 0 0-2.88 0l-3.75 2.13a2.9 2.9 0 0 0-1.46 2.52v4.23c0 1.04.56 2 1.46 2.52l3.75 2.14c.89.5 1.98.5 2.88 0l3.74-2.14a2.9 2.9 0 0 0 1.46-2.52v-4.23c0-1.04-.56-2-1.46-2.52l-3.74-2.13Z" fill="#D7DCE1"/></mask><g mask="url(#a)"><path d="M22.74 27.73v-7.6l6.64-3.79v7.6l-6.64 3.79Z" fill="#007FFF"/><path d="M16.1 23.93v-7.59l6.64 3.8v7.59l-6.65-3.8Z" fill="#39F"/><path d="m16.1 16.34 6.64-3.8 6.64 3.8-6.64 3.8-6.65-3.8Z" fill="#A5D8FF"/></g><mask id="b" style="mask-type:alpha" maskUnits="userSpaceOnUse" x="8" y="17" width="14" height="15"><path d="M8.5 22.3c0-1.05.56-2 1.46-2.53l3.75-2.14c.89-.5 1.98-.5 2.87 0l3.75 2.14a2.9 2.9 0 0 1 1.46 2.52v4.23c0 1.04-.56 2-1.46 2.52l-3.75 2.14c-.89.5-1.98.5-2.87 0l-3.75-2.14a2.9 2.9 0 0 1-1.46-2.52v-4.23Z" fill="#D7DCE1"/></mask><g mask="url(#b)"><path d="M15.14 32v-7.6l6.65-3.8v7.6L15.14 32Z" fill="#007FFF"/><path d="M8.5 28.2v-7.6l6.64 3.8V32L8.5 28.2Z" fill="#39F"/><path d="m8.5 20.6 6.64-3.79 6.65 3.8-6.65 3.8-6.64-3.8Z" fill="#A5D8FF"/></g><mask id="c" style="mask-type:alpha" maskUnits="userSpaceOnUse" x="8" y="4" width="22" height="20"><path d="M24.17 4.82a2.9 2.9 0 0 0-2.87 0L9.97 11.22a2.9 2.9 0 0 0-1.47 2.53v4.22c0 1.04.56 2 1.46 2.52l3.75 2.14c.89.5 1.98.5 2.87 0l11.33-6.42a2.9 2.9 0 0 0 1.47-2.52V9.48c0-1.04-.56-2-1.46-2.52l-3.75-2.14Z" fill="#D7DCE1"/></mask><g mask="url(#c)"><path d="M15.14 23.46v-7.6L29.38 7.8v7.59l-14.24 8.07Z" fill="#007FFF"/><path d="M8.5 19.66v-7.6l6.64 3.8v7.6l-6.64-3.8Z" fill="#39F"/><path d="M8.5 12.07 22.74 4l6.64 3.8-14.24 8.06-6.64-3.8Z" fill="#A5D8FF"/></g></svg>
